public/assets/img/app/svg/energy.svg

<svg width="13" height="21" viewBox="0 0 13 21" fill="none" xmlns="http://www.w3.org/2000/svg">
<path d="M12.0253 6.5625H7.33722L9.06783 1.23867C9.23032 0.615234 8.76314 0 8.12534 0H2.2754C1.78791 0 1.37354 0.365039 1.30854 0.853125L0.00855462 10.6969C-0.068632 11.2875 0.386363 11.8125 0.975419 11.8125H5.79755L3.92476 19.79C3.77851 20.4135 4.24976 21 4.87131 21C5.21256 21 5.53755 20.8195 5.7163 20.5078L12.8662 8.03906C13.244 7.38691 12.7768 6.5625 12.0253 6.5625Z" fill="#EAB54F"/>
</svg>

<svg xmlns="http://www.w3.org/2000/svg" width="13" height="21" fill="none"><path d="M12.025 6.563H7.337l1.73-5.324C9.23.615 8.763 0 8.125 0h-5.85a.98.98 0 0 0-.967.853l-1.3 9.844c-.077.59.378 1.116.967 1.116h4.822L3.925 19.8A.98.98 0 0 0 4.871 21c.34 0 .666-.18.845-.492l7.15-12.47c.378-.652-.09-1.477-.84-1.477z" fill="#eab54f"/></svg>
